static/data/images/sponsors/stream.svg

<svg viewBox="0 0 117 21" xmlns="http://www.w3.org/2000/svg"><g fill="none" fill-rule="evenodd"><path d="m48.812 16.8999705c.1680008-.1493341.3173327-.3173324.448-.504s.196-.4013322.196-.644c0-.2986682-.1073323-.5506657-.322-.756-.2146677-.2053344-.4759985-.3779993-.784-.518s-.6299983-.247333-.966-.322c-.3360017-.0746671-.6159989-.1399998-.84-.196-.6160031-.1493341-1.194664-.3313323-1.736-.546-.541336-.2146678-1.0126647-.4759985-1.414-.784-.4013353-.3080016-.7186655-.6719979-.952-1.092s-.35-.9193305-.35-1.498c0-.54133607.1306654-1.04999765.392-1.52600003s.6113311-.89599818 1.05-1.26.9519971-.65333226 1.54-.868 1.2086634-.322 1.862-.322c.5786696 0 1.1293307.08399916 1.652.252s.9939979.39666522 1.414.686.7746652.63933128 1.064 1.05.4806662.86799748.574 1.372l-2.436.58800003c-.1120006-.44800227-.3546648-.82133187-.728-1.12000003s-.8866634-.448-1.54-.448c-.2240011 0-.4573321.03266634-.7.098s-.4666656.16333268-.672.294-.3779993.2893324-.518.476-.21.40133212-.21.644c0 .26133463.0793325.48533243.238.67200003s.3499989.340666.574.462c.2240011.1213339.4666654.2193329.728.294.2613346.074667.5039989.1399997.728.196.9893383.2426678 1.8106634.5039986 2.464.784s1.175998.5879983 1.568.924c.392002.3360016.6673325.7046646.826 1.106.1586675.4013353.238.8539974.238 1.358 0 .5973363-.135332 1.1573307-.406 1.68-.270668.5226692-.6439976.9753314-1.12 1.358-.4760024.3826685-1.04533.6813322-1.708.896-.66267.2146677-1.3766628.322-2.142.322-1.1573391 0-2.1886621-.2846639-3.094-.854-.9053379-.5693362-1.5166651-1.3299953-1.834-2.282l2.296-1.036c.2986682.6533366.681331 1.0966655 1.148 1.33s.9986637.35 1.596.35c.7466704 0 1.3719975-.2053313 1.876-.616zm12.276 2.772c-.7653372.2613346-1.5213296.4199997-2.268.476-.7466704.0560002-1.4186637-.051332-2.016-.322-.5973363-.2706681-1.0826648-.7466633-1.456-1.428-.3733352-.6813368-.56-1.6379939-.56-2.87l.0000001-6.21476856h-2.2256222v-2.95684795s.1959839.00000019.6081543.00000019c.727356 0 1.3763245-.17770401 1.8342896-.91619873.1942122-.31317817.2194749-.63353392.243042-1.50189228v-1.02539063h2.3317871v3.44348145h2.7489013v2.95684795h-2.7489013l-.0756509 6.63476856c0 .4480022.0513328.8026653.154 1.064.1026672.2613346.2753321.4573326.518.588.2426679.1306673.559998.196.952.196.3920019 0 .8679972-.037333 1.428-.112zm8.588-10.89200003c-.1306673-.05600028-.2613327-.11199972-.392-.168-.1120006-.03733352-.2426659-.07466648-.392-.112s-.3079992-.056-.476-.056c-.5413361 0-1.045331.08866578-1.512.266s-.8679983.41533184-1.204.714-.601999.64866463-.798 1.05000003c-.196001.4013353-.294.8259977-.294 1.274l-.028 8.2520295h-2.716v-13.71202953h2.156l.56 1.484c.3733352-.54133604.8633303-.9753317 1.47-1.302s1.3673287-.49 2.282-.49c.5973363 0 1.2786628.08399916 2.044.252zm7.048 11.25600003c-.9706716 0-1.8806625-.1819982-2.73-.546-.8493376-.3640019-1.5913302-.8633302-2.226-1.498-.6346699-.6346699-1.1339982-1.3813291-1.498-2.24-.3640019-.858671-.546-1.7733285-.546-2.744 0-.9706716.1726649-1.8853291.518-2.744.345335-.85867099.811997-1.60533019 1.4-2.24000003.5880029-.63466984 1.273996-1.13399818 2.058-1.498.7840039-.36400182 1.6239955-.546 2.52-.546.9146712 0 1.7593294.15866508 2.534.476.7746705.31733492 1.4466638.81199664 2.016 1.484.5693361.67200336 1.012665 1.52599482 1.33 2.56200003.3173349 1.0360051.476 2.2726594.476 3.71h-9.968c.1306673.4853357.3359986.9379979.616 1.358s.6113314.7839984.994 1.092c.3826685.3080015.8119976.5459991 1.288.714.4760023.1680008.9753307.252 1.498.252.7093368 0 1.3673303-.1306654 1.974-.392.6066697-.2613347 1.1246645-.6066646 1.554-1.036l1.68 1.68c-.6533366.6533366-1.4513287 1.175998-2.394 1.568-.9426714.3920019-1.9739944.588-3.094.588zm-.504-11.59200003c-.4293355 0-.8353315.08399916-1.218.252-.3826686.16800084-.7373317.40133184-1.064.7s-.6066655.65333123-.84 1.06400003c-.2333345.4106687-.4059995.8586642-.518 1.344h7.084c-.0373336-.4480023-.1399992-.8773313-.308-1.288-.1680009-.4106688-.4013319-.76999849-.7-1.07800003-.2986682-.30800154-.6486647-.55066578-1.05-.728-.4013354-.17733422-.8633308-.266-1.386-.266zm20.9-2.156v13.71202953h-2.296l-.42-1.8400295c-.466669.616003-1.0639964 1.082665-1.792 1.4-.7280037.3173349-1.4653296.476-2.212.476-.933338 0-1.805996-.1819982-2.618-.546-.8120041-.3640019-1.5213303-.8633302-2.128-1.498-.6066697-.6346699-1.0873316-1.3813291-1.442-2.24-.3546685-.858671-.532-1.7733285-.532-2.744 0-.9706716.1773315-1.8853291.532-2.744.3546684-.85867099.8353303-1.60533019 1.442-2.24000003s1.3159959-1.13399818 2.128-1.498c.812004-.36400182 1.684662-.546 2.618-.546.7466704 0 1.4653298.14466522 2.156.434.6906701.28933478 1.3066639.74199692 1.848 1.358l.42-1.484zm-6.72 11.34000003c.541336 0 1.0546642-.1213322 1.54-.364.4853357-.2426679.9053315-.5739979 1.26-.994.3546684-.4200021.6346656-.9099972.84-1.47.2053343-.5600028.308-1.1573302.308-1.792 0-.6346699-.1026657-1.2319972-.308-1.792-.2053344-.5600028-.4853316-1.0499979-.84-1.47000003-.3546685-.4200021-.7746643-.75133212-1.26-.994-.4853358-.24266788-.998664-.364-1.54-.364-.5413361 0-1.0546643.12133212-1.54.364-.4853358.24266788-.9053316.5739979-1.26.994-.3546685.42000213-.6346657.90999723-.84 1.47000003-.2053344.5600028-.308 1.1573301-.308 1.792 0 .6346698.1026656 1.2319972.308 1.792.2053343.5600028.4853315 1.0499979.84 1.47.3546684.4200021.7746642.7513321 1.26.994.4853357.2426678.9986639.364 1.54.364zm11.408 2.3720295h-2.7160001v-13.71202953h2.1560001l.56 1.148c.336002-.39200196.737331-.73266522 1.204-1.022s1.035997-.434 1.708-.434c.261335 0 .555332.03266634.882.098s.662665.17733254 1.008.336.676665.37333198.994.644.587999.62066452.812 1.05c.317335-.57866956.797997-1.0779979 1.442-1.498s1.329996-.63 2.058-.63c.485336 0 .998664.07466592 1.54.224s1.045331.42933128 1.512.84.849332.97999636 1.148 1.708.448 1.67066083.448 2.82800003v8.4200295h-2.548v-8.4480295c0-1.1573392-.237998-1.96466441-.714-2.42200003s-1.105996-.686-1.89-.686c-.597336 0-1.119998.25199748-1.568.756s-.672 1.29732793-.672 2.38000003v8.4200295h-2.548v-8.4480295c0-1.1573392-.237998-1.96466441-.714-2.42200003s-1.105996-.686-1.89-.686c-.560003 0-1.049998.21466452-1.47.644s-.667333 1.10132873-.742 2.01600003z" fill="#fff"/><path d="m26.1491984 6.42806971 12.8031-.9076c.8451-.0599 1.3772.8925.8831 1.5807l-8.9563 12.47519999c-.1878.2616-.4902.4168-.8123.4168h-20.08449998c-.3216 0-.6236-.1547-.8116-.4158l-8.9801-12.47519999c-.49530001-.6881.0368-1.6418.8826-1.5817l12.76409998.9077 5.4517-6.0949c.3995-.4466 1.0995-.444 1.4957.0057zm2.6812 11.58720369-8.3091-3.1053v3.1053zm-9.3091 0v-3.1053l-8.3091 3.1053zm-.9588-3.8471037-8.4895 3.169-6.24559998-8.68159999zm2.9003 0 8.4895 3.169 6.2456-8.68159999zm-1.9335-.7246v-10.44879999l-6.9414 7.83579999zm.992 0v-10.44749999l6.9415 7.83449999zm-9.969-3.3353 1.5971-1.79459999-7.80269998-.5592zm18.8626 0-1.597-1.79459999 7.8027-.5592z" fill="#2f7deb"/></g></svg>

<svg  viewBox="0 0 117 21" version="1.1" xmlns="http://www.w3.org/2000/svg" xmlns:xlink="http://www.w3.org/1999/xlink"><g id="-Home" stroke="none" stroke-width="1" fill="none" fill-rule="evenodd"><g id="01.-Web-Home" transform="translate(-136.000000, -47.000000)"><g id="Header/-Nav-"><g id="Header/-Nav-#flatten" transform="translate(0.000000, 43.000000)"><g id="Stream-Logo" transform="translate(135.000000, 4.000000)"><g id="Stream-Blue-Logo-" transform="translate(1.000000, 0.000000)"><path class="dark stream" d="M48.812,16.8999705 C48.9800008,16.7506364 49.1293327,16.5826381 49.26,16.3959705 C49.3906673,16.2093029 49.456,15.9946383 49.456,15.7519705 C49.456,15.4533023 49.3486677,15.2013048 49.134,14.9959705 C48.9193323,14.7906361 48.6580015,14.6179712 48.35,14.4779705 C48.0419985,14.3379698 47.7200017,14.2306375 47.384,14.1559705 C47.0479983,14.0813034 46.7680011,14.0159707 46.544,13.9599705 C45.9279969,13.8106364 45.349336,13.6286382 44.808,13.4139705 C44.266664,13.1993027 43.7953353,12.937972 43.394,12.6299705 C42.9926647,12.3219689 42.6753345,11.9579726 42.442,11.5379705 C42.2086655,11.1179684 42.092,10.61864 42.092,10.0399705 C42.092,9.49863443 42.2226654,8.98997285 42.484,8.51397047 C42.7453346,8.03796809 43.0953311,7.61797229 43.534,7.25397047 C43.9726689,6.88996865 44.4859971,6.60063821 45.074,6.38597047 C45.6620029,6.17130273 46.2826634,6.06397047 46.936,6.06397047 C47.5146696,6.06397047 48.0653307,6.14796963 48.588,6.31597047 C49.1106693,6.48397131 49.5819979,6.71263569 50.002,7.00197047 C50.4220021,7.29130525 50.7766652,7.64130175 51.066,8.05197047 C51.3553348,8.46263919 51.5466662,8.91996795 51.64,9.42397047 L49.204,10.0119705 C49.0919994,9.56396823 48.8493352,9.19063863 48.476,8.89197047 C48.1026648,8.59330231 47.5893366,8.44397047 46.936,8.44397047 C46.7119989,8.44397047 46.4786679,8.47663681 46.236,8.54197047 C45.9933321,8.60730413 45.7693344,8.70530315 45.564,8.83597047 C45.3586656,8.96663779 45.1860007,9.12530287 45.046,9.31197047 C44.9059993,9.49863807 44.836,9.71330259 44.836,9.95597047 C44.836,10.2173051 44.9153325,10.4413029 45.074,10.6279705 C45.2326675,10.8146381 45.4239989,10.9686365 45.648,11.0899705 C45.8720011,11.2113044 46.1146654,11.3093034 46.376,11.3839705 C46.6373346,11.4586375 46.8799989,11.5239702 47.104,11.5799705 C48.0933383,11.8226383 48.9146634,12.0839691 49.568,12.3639705 C50.2213366,12.6439719 50.743998,12.9519688 51.136,13.2879705 C51.528002,13.6239721 51.8033325,13.9926351 51.962,14.3939705 C52.1206675,14.7953058 52.2,15.2479679 52.2,15.7519705 C52.2,16.3493068 52.064668,16.9093012 51.794,17.4319705 C51.523332,17.9546397 51.1500024,18.4073019 50.674,18.7899705 C50.1979976,19.172639 49.62867,19.4713027 48.966,19.6859705 C48.30333,19.9006382 47.5893372,20.0079705 46.824,20.0079705 C45.6666609,20.0079705 44.6353379,19.7233066 43.73,19.1539705 C42.8246621,18.5846343 42.2133349,17.8239752 41.896,16.8719705 L44.192,15.8359705 C44.4906682,16.4893071 44.873331,16.932636 45.34,17.1659705 C45.806669,17.399305 46.3386637,17.5159705 46.936,17.5159705 C47.6826704,17.5159705 48.3079975,17.3106392 48.812,16.8999705 L48.812,16.8999705 Z M61.088,19.6719705 C60.3226628,19.9333051 59.5666704,20.0919702 58.82,20.1479705 C58.0733296,20.2039707 57.4013363,20.0966385 56.804,19.8259705 C56.2066637,19.5553024 55.7213352,19.0793072 55.348,18.3979705 C54.9746648,17.7166337 54.788,16.7599766 54.788,15.5279705 L54.7880001,9.31320194 L52.5623779,9.31320194 L52.5623779,6.35635399 C52.5623779,6.35635399 52.7583618,6.35635418 53.1705322,6.35635418 C53.8978882,6.35635418 54.5468567,6.17865017 55.0048218,5.44015545 C55.199034,5.12697728 55.2242967,4.80662153 55.2478638,3.93826317 L55.2478638,2.91287254 L57.5796509,2.91287254 L57.5796509,6.35635399 L60.3285522,6.35635399 L60.3285522,9.31320194 L57.5796509,9.31320194 L57.504,15.9479705 C57.504,16.3959727 57.5553328,16.7506358 57.658,17.0119705 C57.7606672,17.2733051 57.9333321,17.4693031 58.176,17.5999705 C58.4186679,17.7306378 58.735998,17.7959705 59.128,17.7959705 C59.5200019,17.7959705 59.9959972,17.7586375 60.556,17.6839705 L61.088,19.6719705 Z M69.676,8.77997047 C69.5453327,8.72397019 69.4146673,8.66797075 69.284,8.61197047 C69.1719994,8.57463695 69.0413341,8.53730399 68.892,8.49997047 C68.7426659,8.46263695 68.5840008,8.44397047 68.416,8.44397047 C67.8746639,8.44397047 67.370669,8.53263625 66.904,8.70997047 C66.437331,8.88730469 66.0360017,9.12530231 65.7,9.42397047 C65.3639983,9.72263863 65.098001,10.0726351 64.902,10.4739705 C64.705999,10.8753058 64.608,11.2999682 64.608,11.7479705 L64.58,20 L61.864,20 L61.864,6.28797047 L64.02,6.28797047 L64.58,7.77197047 C64.9533352,7.23063443 65.4433303,6.79663877 66.05,6.46997047 C66.6566697,6.14330217 67.4173287,5.97997047 68.332,5.97997047 C68.9293363,5.97997047 69.6106628,6.06396963 70.376,6.23197047 L69.676,8.77997047 Z M76.724,20.0359705 C75.7533284,20.0359705 74.8433375,19.8539723 73.994,19.4899705 C73.1446624,19.1259686 72.4026698,18.6266403 71.768,17.9919705 C71.1333301,17.3573006 70.6340018,16.6106414 70.27,15.7519705 C69.9059981,14.8932995 69.724,13.978642 69.724,13.0079705 C69.724,12.0372989 69.8966649,11.1226414 70.242,10.2639705 C70.587335,9.40529951 71.053997,8.65864031 71.642,8.02397047 C72.2300029,7.38930063 72.915996,6.88997229 73.7,6.52597047 C74.4840039,6.16196865 75.3239955,5.97997047 76.22,5.97997047 C77.1346712,5.97997047 77.9793294,6.13863555 78.754,6.45597047 C79.5286705,6.77330539 80.2006638,7.26796711 80.77,7.93997047 C81.3393361,8.61197383 81.782665,9.46596529 82.1,10.5019705 C82.4173349,11.5379756 82.576,12.7746299 82.576,14.2119705 L72.608,14.2119705 C72.7386673,14.6973062 72.9439986,15.1499684 73.224,15.5699705 C73.5040014,15.9899726 73.8353314,16.3539689 74.218,16.6619705 C74.6006685,16.969972 75.0299976,17.2079696 75.506,17.3759705 C75.9820023,17.5439713 76.4813307,17.6279705 77.004,17.6279705 C77.7133368,17.6279705 78.3713303,17.4973051 78.978,17.2359705 C79.5846697,16.9746358 80.1026645,16.6293059 80.532,16.1999705 L82.212,17.8799705 C81.5586634,18.5333071 80.7606713,19.0559685 79.818,19.4479705 C78.8753286,19.8399724 77.8440056,20.0359705 76.724,20.0359705 L76.724,20.0359705 Z M76.22,8.44397047 C75.7906645,8.44397047 75.3846685,8.52796963 75.002,8.69597047 C74.6193314,8.86397131 74.2646683,9.09730231 73.938,9.39597047 C73.6113317,9.69463863 73.3313345,10.0493017 73.098,10.4599705 C72.8646655,10.8706392 72.6920005,11.3186347 72.58,11.8039705 L79.664,11.8039705 C79.6266664,11.3559682 79.5240008,10.9266392 79.356,10.5159705 C79.1879991,10.1053017 78.9546681,9.74597201 78.656,9.43797047 C78.3573318,9.12996893 78.0073353,8.88730469 77.606,8.70997047 C77.2046646,8.53263625 76.7426692,8.44397047 76.22,8.44397047 L76.22,8.44397047 Z M97.12,6.28797047 L97.12,20 L94.824,20 L94.404,18.1599705 C93.937331,18.7759735 93.3400036,19.2426355 92.612,19.5599705 C91.8839963,19.8773054 91.1466704,20.0359705 90.4,20.0359705 C89.466662,20.0359705 88.594004,19.8539723 87.782,19.4899705 C86.9699959,19.1259686 86.2606697,18.6266403 85.654,17.9919705 C85.0473303,17.3573006 84.5666684,16.6106414 84.212,15.7519705 C83.8573315,14.8932995 83.68,13.978642 83.68,13.0079705 C83.68,12.0372989 83.8573315,11.1226414 84.212,10.2639705 C84.5666684,9.40529951 85.0473303,8.65864031 85.654,8.02397047 C86.2606697,7.38930063 86.9699959,6.88997229 87.782,6.52597047 C88.594004,6.16196865 89.466662,5.97997047 90.4,5.97997047 C91.1466704,5.97997047 91.8653298,6.12463569 92.556,6.41397047 C93.2466701,6.70330525 93.8626639,7.15596739 94.404,7.77197047 L94.824,6.28797047 L97.12,6.28797047 Z M90.4,17.6279705 C90.941336,17.6279705 91.4546642,17.5066383 91.94,17.2639705 C92.4253357,17.0213026 92.8453315,16.6899726 93.2,16.2699705 C93.5546684,15.8499684 93.8346656,15.3599733 94.04,14.7999705 C94.2453343,14.2399677 94.348,13.6426403 94.348,13.0079705 C94.348,12.3733006 94.2453343,11.7759733 94.04,11.2159705 C93.8346656,10.6559677 93.5546684,10.1659726 93.2,9.74597047 C92.8453315,9.32596837 92.4253357,8.99463835 91.94,8.75197047 C91.4546642,8.50930259 90.941336,8.38797047 90.4,8.38797047 C89.8586639,8.38797047 89.3453357,8.50930259 88.86,8.75197047 C88.3746642,8.99463835 87.9546684,9.32596837 87.6,9.74597047 C87.2453315,10.1659726 86.9653343,10.6559677 86.76,11.2159705 C86.5546656,11.7759733 86.452,12.3733006 86.452,13.0079705 C86.452,13.6426403 86.5546656,14.2399677 86.76,14.7999705 C86.9653343,15.3599733 87.2453315,15.8499684 87.6,16.2699705 C87.9546684,16.6899726 88.3746642,17.0213026 88.86,17.2639705 C89.3453357,17.5066383 89.8586639,17.6279705 90.4,17.6279705 L90.4,17.6279705 Z M101.808,20 L99.0919999,20 L99.0919999,6.28797047 L101.248,6.28797047 L101.808,7.43597047 C102.144002,7.04396851 102.545331,6.70330525 103.012,6.41397047 C103.478669,6.12463569 104.047997,5.97997047 104.72,5.97997047 C104.981335,5.97997047 105.275332,6.01263681 105.602,6.07797047 C105.928668,6.14330413 106.264665,6.25530301 106.61,6.41397047 C106.955335,6.57263793 107.286665,6.78730245 107.604,7.05797047 C107.921335,7.32863849 108.191999,7.67863499 108.416,8.10797047 C108.733335,7.52930091 109.213997,7.02997257 109.858,6.60997047 C110.502003,6.18996837 111.187996,5.97997047 111.916,5.97997047 C112.401336,5.97997047 112.914664,6.05463639 113.456,6.20397047 C113.997336,6.35330455 114.501331,6.63330175 114.968,7.04397047 C115.434669,7.45463919 115.817332,8.02396683 116.116,8.75197047 C116.414668,9.47997411 116.564,10.4226313 116.564,11.5799705 L116.564,20 L114.016,20 L114.016,11.5519705 C114.016,10.3946313 113.778002,9.58730609 113.302,9.12997047 C112.825998,8.67263485 112.196004,8.44397047 111.412,8.44397047 C110.814664,8.44397047 110.292002,8.69596795 109.844,9.19997047 C109.395998,9.70397299 109.172,10.4972984 109.172,11.5799705 L109.172,20 L106.624,20 L106.624,11.5519705 C106.624,10.3946313 106.386002,9.58730609 105.91,9.12997047 C105.433998,8.67263485 104.804004,8.44397047 104.02,8.44397047 C103.459997,8.44397047 102.970002,8.65863499 102.55,9.08797047 C102.129998,9.51730595 101.882667,10.1892992 101.808,11.1039705 L101.808,20 Z" id="Stream-Word" fill="#fff"></path><path class="stream-mark" d="M26.1491984,6.42806971 L38.9522984,5.52046971 C39.7973984,5.46056971 40.3294984,6.41296971 39.8353984,7.10116971 L30.8790984,19.5763697 C30.6912984,19.8379697 30.3888984,19.9931697 30.0667984,19.9931697 L9.98229842,19.9931697 C9.66069842,19.9931697 9.35869842,19.8384697 9.17069842,19.5773697 L0.190598415,7.10216971 C-0.304701585,6.41406971 0.227398415,5.46036971 1.07319842,5.52046971 L13.8372984,6.42816971 L19.2889984,0.333269706 C19.6884984,-0.113330294 20.3884984,-0.110730294 20.7846984,0.338969706 L26.1491984,6.42806971 Z M28.8303984,18.0152734 L20.5212984,14.9099734 L20.5212984,18.0152734 L28.8303984,18.0152734 Z M19.5212984,18.0152734 L19.5212984,14.9099734 L11.2121984,18.0152734 L19.5212984,18.0152734 Z M18.5624984,14.1681697 L10.0729984,17.3371697 L3.82739842,8.65556971 L18.5624984,14.1681697 Z M21.4627984,14.1681697 L29.9522984,17.3371697 L36.1978984,8.65556971 L21.4627984,14.1681697 Z M19.5292984,13.4435697 L19.5292984,2.99476971 L12.5878984,10.8305697 L19.5292984,13.4435697 Z M20.5212984,13.4435697 L20.5212984,2.99606971 L27.4627984,10.8305697 L20.5212984,13.4435697 Z M10.5522984,10.1082697 L12.1493984,8.31366971 L4.34669842,7.75446971 L10.5522984,10.1082697 Z M29.4148984,10.1082697 L27.8178984,8.31366971 L35.6205984,7.75446971 L29.4148984,10.1082697 Z" id="STREAM-MARK" fill="#2F7DEB"></path></g></g></g></g></g></g></svg>
